Newaita-dark/actions/32/mail-mark-unread.svg

<svg height="32" viewBox="0 0 32 32" width="32" xmlns="http://www.w3.org/2000/svg"><g fill="#e0e0e0"><path d="m5.292969 5.542969c-1.464844 0-2.648438 1.179687-2.648438 2.644531v15.878906c0 1.464844 1.183594 2.644532 2.648438 2.644532h21.167969c1.464843 0 2.644531-1.179688 2.644531-2.644532v-15.878906c0-1.464844-1.179688-2.644531-2.644531-2.644531zm1.320312 2.644531h18.523438c.734375 0 1.324219.589844 1.324219 1.324219v13.230469c0 .734374-.589844 1.324218-1.324219 1.324218h-18.523438c-.730469 0-1.320312-.589844-1.320312-1.324218v-13.230469c0-.734375.589843-1.324219 1.320312-1.324219zm0 0"/><path d="m4.84375 5.882812-1.75 1.964844 11.90625 10.585938c.5.445312 1.253906.445312 1.75 0l11.910156-10.585938-1.75-1.964844-11.035156 9.804688zm0 0"/></g></svg>

<?xml version="1.0" encoding="UTF-8"?>
<svg xmlns="http://www.w3.org/2000/svg" xmlns:xlink="http://www.w3.org/1999/xlink" width="32px" height="32px" viewBox="0 0 32 32" version="1.1">
<g id="surface1">
<path style=" stroke:none;fill-rule:nonzero;fill:rgb(87.843138%,87.843138%,87.843138%);fill-opacity:1;" d="M 5.292969 5.542969 C 3.828125 5.542969 2.644531 6.722656 2.644531 8.1875 L 2.644531 24.066406 C 2.644531 25.53125 3.828125 26.710938 5.292969 26.710938 L 26.460938 26.710938 C 27.925781 26.710938 29.105469 25.53125 29.105469 24.066406 L 29.105469 8.1875 C 29.105469 6.722656 27.925781 5.542969 26.460938 5.542969 Z M 6.613281 8.1875 L 25.136719 8.1875 C 25.871094 8.1875 26.460938 8.777344 26.460938 9.511719 L 26.460938 22.742188 C 26.460938 23.476562 25.871094 24.066406 25.136719 24.066406 L 6.613281 24.066406 C 5.882812 24.066406 5.292969 23.476562 5.292969 22.742188 L 5.292969 9.511719 C 5.292969 8.777344 5.882812 8.1875 6.613281 8.1875 Z M 6.613281 8.1875 "/>
<path style=" stroke:none;fill-rule:nonzero;fill:rgb(87.843138%,87.843138%,87.843138%);fill-opacity:1;" d="M 4.84375 5.882812 L 3.09375 7.847656 L 15 18.433594 C 15.5 18.878906 16.253906 18.878906 16.75 18.433594 L 28.660156 7.847656 L 26.910156 5.882812 L 15.875 15.6875 Z M 4.84375 5.882812 "/>
</g>
</svg>
